<?xml version="1.0" encoding="UTF-8"?>
<map version="1.10" tiledversion="1.12.2" orientation="orthogonal" renderorder="right-down" width="30" height="20" tilewidth="32" tileheight="32" infinite="1" nextlayerid="9" nextobjectid="426">
 <editorsettings>
  <export target="town-map.tmj" format="json"/>
 </editorsettings>
 <imagelayer id="2" name="Background">
  <image source="town-map.png" width="1448" height="1086"/>
 </imagelayer>
 <imagelayer id="5" name="Front">
  <image source="town-map-front.png" width="1448" height="1086"/>
 </imagelayer>
 <objectgroup id="4" name="Collision">
  <object id="9" x="858.722" y="448.629" width="2.18134"/>
  <object id="17" x="855.865" y="-1.94515" width="594.242" height="76.8333"/>
  <object id="34" x="1360.86" y="99.3884" width="24.6347" height="115.528"/>
  <object id="53" x="-2.50526" y="227.478" width="45.0947" height="362.762"/>
  <object id="69" x="637.295" y="975.426" width="26.3968" height="65.9921"/>
  <object id="71" x="793.162" y="976.054" width="35.8243" height="65.9921"/>
  <object id="72" x="445.604" y="317.39" width="68.5061" height="30.7963"/>
  <object id="73" x="455.031" y="306.706" width="50.9082" height="18.2264"/>
  <object id="74" x="470.115" y="344.416" width="22.6259" height="15.7124"/>
  <object id="85" x="95.6446" y="613.13" width="31.5011" height="23.5117"/>
  <object id="86" x="112.765" y="585.738" width="19.4028" height="16.8919"/>
  <object id="88" x="83.8019" y="941.209" width="32.5298" height="28.8675"/>
  <object id="98" x="262.823" y="1002.39" width="28.8675" height="28.0058"/>
  <object id="101" x="-1.64721" y="168.016" width="24.4729" height="75.0659"/>
  <object id="111" x="191.119" y="993.82" width="57.6543" height="37.5868"/>
  <object id="112" x="201.312" y="1021.53" width="31.2162" height="28.6679"/>
  <object id="113" x="200.675" y="976.301" width="35.9941" height="21.3417"/>
  <object id="114" x="204.816" y="968.975" width="25.8011" height="10.8301"/>
  <object id="115" x="213.735" y="961.33" width="8.60037" height="9.8745"/>
  <object id="116" x="1352.49" y="664.458" width="33.7644" height="13.3784"/>
  <object id="117" x="1355.99" y="657.132" width="21.9787" height="7.96331"/>
  <object id="118" x="1364.91" y="653.31" width="5.73358" height="4.45945"/>
  <object id="121" x="376.935" y="1030.59" width="54.8451" height="25.6775"/>
  <object id="122" x="384.663" y="1051.03" width="44.1253" height="13.2127"/>
  <object id="123" x="396.38" y="1060.75" width="16.2042" height="16.9521"/>
  <object id="124" x="381.921" y="1019.12" width="40.8845" height="12.7141"/>
  <object id="125" x="390.646" y="1009.15" width="29.9155" height="11.9662"/>
  <object id="126" x="399.87" y="1002.42" width="8.47606" height="8.22676"/>
  <object id="127" x="562.162" y="1035.33" width="40.8845" height="18.9465"/>
  <object id="128" x="566.151" y="1050.53" width="32.4084" height="8.72535"/>
  <object id="129" x="574.377" y="1056.27" width="15.207" height="13.2127"/>
  <object id="130" x="565.403" y="1028.34" width="37.6437" height="9.22394"/>
  <object id="131" x="567.896" y="1022.11" width="30.9127" height="7.97746"/>
  <object id="132" x="571.884" y="1014.38" width="19.9437" height="9.47324"/>
  <object id="133" x="578.865" y="1009.4" width="6.23239" height="6.48169"/>
  <object id="134" x="854.835" y="1038.57" width="43.6268" height="15.4563"/>
  <object id="135" x="861.317" y="1052.03" width="31.162" height="6.23239"/>
  <object id="136" x="869.045" y="1056.27" width="15.7056" height="15.207"/>
  <object id="137" x="857.328" y="1029.84" width="38.3915" height="10.7197"/>
  <object id="138" x="861.317" y="1021.36" width="32.4084" height="10.7197"/>
  <object id="139" x="865.555" y="1012.14" width="23.4338" height="11.4676"/>
  <object id="140" x="872.784" y="1007.65" width="6.98028" height="5.7338"/>
  <object id="141" x="992.536" y="1024.66" width="59.2964" height="31.4862"/>
  <object id="142" x="999.888" y="1053.27" width="45.711" height="7.67178"/>
  <object id="143" x="1010.76" y="1058.55" width="20.4581" height="19.0196"/>
  <object id="144" x="998.609" y="1018.11" width="48.9076" height="11.6675"/>
  <object id="145" x="999.568" y="1011.08" width="44.4324" height="9.58972"/>
  <object id="146" x="1005.16" y="1001.65" width="31.9657" height="13.106"/>
  <object id="147" x="1016.19" y="996.851" width="9.11023" height="6.7128"/>
  <object id="148" x="1176.38" y="1030.17" width="74.4842" height="19.3107"/>
  <object id="149" x="1183.27" y="1043.96" width="60.4938" height="12.6111"/>
  <object id="150" x="1190.37" y="1053.22" width="49.8532" height="7.88193"/>
  <object id="153" x="1182.09" y="1018.54" width="65.42" height="17.3402"/>
  <object id="154" x="1194.7" y="1007.7" width="45.5181" height="13.3993"/>
  <object id="155" x="1200.42" y="999.429" width="29.5572" height="10.8377"/>
  <object id="156" x="1211.45" y="995.488" width="6.30554" height="5.91145"/>
  <object id="157" x="1273.46" y="1027.05" width="80.8435" height="21.6342"/>
  <object id="158" x="1283.93" y="1043.91" width="61.4866" height="13.6637"/>
  <object id="166" x="1279.6" y="1009.06" width="72.873" height="23.9115"/>
  <object id="167" x="1288.03" y="997.677" width="57.6152" height="15.4855"/>
  <object id="168" x="1297.37" y="988.568" width="35.9811" height="13.6637"/>
  <object id="169" x="1301.24" y="983.786" width="26.4165" height="8.65367"/>
  <object id="170" x="1309.44" y="976.954" width="8.19821" height="8.65367"/>
  <object id="171" x="1335.4" y="945.527" width="28.0106" height="21.1787"/>
  <object id="172" x="148.464" y="991.479" width="24.2706" height="18.5902"/>
  <object id="173" x="94.7586" y="1040.8" width="18.8484" height="34.0821"/>
  <object id="174" x="167.57" y="1062.74" width="16.5247" height="18.0738"/>
  <object id="176" x="1206.3" y="1058.87" width="17.5574" height="21.6886"/>
  <object id="177" x="1304.16" y="1053.71" width="20.914" height="27.6272"/>
  <object id="179" x="1404.82" y="651.252" width="30.2908" height="32.9833"/>
  <object id="180" x="1422.84" y="67.9379" width="27.0208" height="562.804"/>
  <object id="181" x="1359.95" y="716.402" width="17.9708" height="165.622"/>
  <object id="182" x="1377.43" y="1050.56" width="38.8557" height="31.5703"/>
  <object id="183" x="1358.5" y="984.383" width="86.8016" height="39.4208"/>
  <object id="184" x="1370.63" y="1018.12" width="63.3007" height="15.1619"/>
  <object id="186" x="1391.48" y="1028.35" width="21.6056" height="24.259"/>
  <object id="187" x="1414.22" y="1039.35" width="34.4932" height="48.897"/>
  <object id="188" x="1363.81" y="974.149" width="73.535" height="14.7828"/>
  <object id="189" x="1373.28" y="959.366" width="58.3731" height="20.8475"/>
  <object id="190" x="1385.79" y="946.858" width="29.5656" height="15.5409"/>
  <object id="192" x="1395.89" y="905.801" width="54.3614" height="41.3547"/>
  <object id="193" x="1407.73" y="886.792" width="27.8477" height="25.6799"/>
  <object id="194" x="1409.56" y="942.153" width="23.8457" height="16.5085"/>
  <object id="195" x="1366.21" y="925.812" width="25.0129" height="28.8482"/>
  <object id="197" x="1363.87" y="901.132" width="34.6846" height="26.3469"/>
  <object id="198" x="1368.54" y="892.294" width="24.3459" height="16.5085"/>
  <object id="199" x="1377.21" y="887.292" width="8.17089" height="8.50439"/>
  <object id="202" x="1374.04" y="841.435" width="78.8741" height="40.8544"/>
  <object id="203" x="1394.89" y="877.287" width="42.0217" height="11.5059"/>
  <object id="204" x="1380.38" y="829.429" width="68.5354" height="19.1766"/>
  <object id="205" x="1393.22" y="820.257" width="46.3573" height="15.0078"/>
  <object id="206" x="1396.72" y="810.085" width="34.6846" height="14.841"/>
  <object id="207" x="1409.73" y="801.914" width="10.5054" height="12.5065"/>
  <object id="208" x="1386.72" y="759.726" width="62.5323" height="32.1833"/>
  <object id="209" x="1405.06" y="787.24" width="25.3464" height="18.5096"/>
  <object id="210" x="1391.05" y="747.553" width="52.8606" height="22.3449"/>
  <object id="211" x="1398.39" y="738.215" width="39.0202" height="14.5075"/>
  <object id="212" x="1403.89" y="729.544" width="25.5132" height="11.6727"/>
  <object id="213" x="1412.56" y="724.041" width="7.00362" height="7.50388"/>
  <object id="214" x="1385.6" y="698.047" width="61.4405" height="17.8986"/>
  <object id="215" x="1391.1" y="711.987" width="49.5654" height="14.6287"/>
  <object id="216" x="1389.38" y="682.73" width="59.3753" height="17.7265"/>
  <object id="217" x="1396.27" y="677.222" width="49.2212" height="10.4982"/>
  <object id="218" x="1344.63" y="668.789" width="46.6397" height="15.8334"/>
  <object id="219" x="1342.57" y="681.181" width="49.7375" height="16.1776"/>
  <object id="220" x="1360.47" y="693.4" width="16.5218" height="13.5961"/>
  <object id="221" x="1392.17" y="617.264" width="52.6652" height="35.8194"/>
  <object id="222" x="27.4142" y="1062.52" width="21.2239" height="24.098"/>
  <object id="223" x="241.422" y="1070.7" width="17.4655" height="17.2444"/>
  <object id="227" x="28.8566" y="977.817" width="23.1454" height="29.4577"/>
  <object id="228" x="22.5442" y="1014.49" width="27.3536" height="18.3359"/>
  <object id="229" x="18.9371" y="1022" width="38.776" height="23.446"/>
  <object id="230" x="14.4283" y="1032.52" width="48.996" height="26.7524"/>
  <object id="231" x="9.91944" y="1045.75" width="57.1119" height="25.2495"/>
  <object id="232" x="33.9666" y="1005.47" width="6.61296" height="12.9253"/>
  <object id="233" x="88.9744" y="988.638" width="27.6542" height="22.8448"/>
  <object id="234" x="83.5638" y="996.754" width="39.9784" height="21.943"/>
  <object id="237" x="76.9508" y="1008.18" width="56.8114" height="19.2377"/>
  <object id="238" x="68.8349" y="1019.6" width="72.1414" height="29.1571"/>
  <object id="239" x="77.2514" y="1046.35" width="58.0137" height="12.0236"/>
  <object id="240" x="74.2455" y="1014.49" width="63.4243" height="9.01767"/>
  <object id="241" x="149.195" y="1051.55" width="53.7794" height="16.3569"/>
  <object id="242" x="152.169" y="1038.17" width="50.062" height="19.3309"/>
  <object id="243" x="160.099" y="1026.77" width="33.2094" height="14.6221"/>
  <object id="244" x="165.551" y="1017.84" width="17.3482" height="11.1524"/>
  <object id="245" x="173.482" y="1011.9" width="5.94796" height="7.68278"/>
  <object id="246" x="224.04" y="1055.02" width="51.0533" height="21.8092"/>
  <object id="247" x="228.748" y="1043.87" width="44.6097" height="13.6307"/>
  <object id="248" x="236.927" y="1035.44" width="27.5093" height="11.1524"/>
  <object id="249" x="245.601" y="1030.73" width="7.68278" height="7.18711"/>
  <object id="250" x="-1.23916" y="942.999" width="76.5799" height="36.9269"/>
  <object id="251" x="6.69145" y="975.96" width="59.7274" height="13.8786"/>
  <object id="252" x="-3.71747" y="927.385" width="75.0929" height="20.3222"/>
  <object id="253" x="11.8959" y="914.25" width="50.8055" height="16.8525"/>
  <object id="254" x="23.7918" y="902.85" width="24.7831" height="16.109"/>
  <object id="255" x="32.9616" y="898.141" width="8.6741" height="10.6568"/>
  <object id="256" x="13.3829" y="876.332" width="43.8662" height="20.3222"/>
  <object id="257" x="50.3098" y="871.128" width="20.57" height="17.1004"/>
  <object id="258" x="28.2528" y="893.432" width="19.083" height="11.4002"/>
  <object id="259" x="72.3668" y="704.585" width="16.6047" height="176.704"/>
  <object id="260" x="-2.77274" y="846.945" width="75.8722" height="38.8183"/>
  <object id="261" x="10.5868" y="834.594" width="50.9175" height="17.1406"/>
  <object id="262" x="17.3926" y="825.519" width="40.8348" height="13.1075"/>
  <object id="263" x="24.9546" y="815.689" width="24.9546" height="12.3513"/>
  <object id="264" x="18.1488" y="810.899" width="12.8554" height="16.6364"/>
  <object id="265" x="-3.27687" y="790.23" width="64.2771" height="22.686"/>
  <object id="266" x="-1.5124" y="777.627" width="60.7481" height="14.3678"/>
  <object id="267" x="4.28514" y="766.536" width="47.6407" height="18.1488"/>
  <object id="268" x="13.6116" y="759.226" width="30.7522" height="10.3347"/>
  <object id="269" x="24.9546" y="754.184" width="7.05787" height="10.8389"/>
  <object id="271" x="23.9464" y="739.312" width="21.6778" height="17.8968"/>
  <object id="272" x="12.0992" y="726.457" width="42.0952" height="15.8802"/>
  <object id="273" x="-2.2686" y="714.358" width="65.2853" height="24.7026"/>
  <object id="274" x="-1.26033" y="695.705" width="70.8308" height="38.0621"/>
  <object id="275" x="4.28514" y="681.085" width="59.4878" height="17.8968"/>
  <object id="276" x="15.3761" y="663.188" width="36.5497" height="21.4257"/>
  <object id="279" x="39.5745" y="646.552" width="18.653" height="22.1819"/>
  <object id="280" x="20.6695" y="633.444" width="55.4547" height="15.124"/>
  <object id="281" x="9.57854" y="607.481" width="77.3846" height="29.4918"/>
  <object id="282" x="15.3761" y="594.122" width="68.5622" height="19.9133"/>
  <object id="283" x="25.7108" y="581.266" width="47.6407" height="18.653"/>
  <object id="284" x="27.6451" y="75.0076" width="25.2058" height="34.1498"/>
  <object id="285" x="7.92763" y="52.4444" width="65.6571" height="30.4909"/>
  <object id="286" x="-1.42291" y="35.776" width="82.5287" height="37.8087"/>
  <object id="287" x="9.14727" y="10.5702" width="61.1851" height="33.3367"/>
  <object id="288" x="23.5796" y="-0.813091" width="27.8484" height="23.9862"/>
  <object id="290" x="92.8956" y="23.5796" width="18.9044" height="28.2549"/>
  <object id="292" x="65.4538" y="-9.14727" width="62.2014" height="41.8742"/>
  <object id="293" x="135.989" y="25.8156" width="53.664" height="35.776"/>
  <object id="294" x="152.048" y="56.9164" width="19.3109" height="19.5142"/>
  <object id="295" x="146.153" y="5.48836" width="34.5564" height="29.4745"/>
  <object id="296" x="154.894" y="-1.01636" width="9.55382" height="9.96036"/>
  <object id="297" x="207.745" y="4.472" width="55.0869" height="47.5658"/>
  <object id="298" x="199.411" y="6.09818" width="10.3669" height="40.0447"/>
  <object id="299" x="194.735" y="16.2618" width="7.72436" height="25.4091"/>
  <object id="300" x="259.579" y="11.9931" width="12.1964" height="32.5236"/>
  <object id="301" x="205.305" y="-4.06545" width="60.9818" height="20.7338"/>
  <object id="302" x="224.616" y="45.7364" width="19.9207" height="29.2713"/>
  <object id="303" x="304.909" y="-3.45564" width="59.3556" height="16.2618"/>
  <object id="304" x="312.43" y="6.708" width="45.9396" height="14.2291"/>
  <object id="305" x="323.407" y="17.2782" width="18.2945" height="20.3273"/>
  <object id="306" x="369.753" y="-4.472" width="70.3324" height="11.9931"/>
  <object id="307" x="374.022" y="3.86218" width="61.3884" height="7.72436"/>
  <object id="308" x="386.015" y="9.14727" width="43.9069" height="9.75709"/>
  <object id="309" x="398.618" y="16.2618" width="19.1076" height="22.7665"/>
  <object id="310" x="354.914" y="17.2782" width="21.1404" height="25.4091"/>
  <object id="311" x="373.412" y="20.9371" width="6.50473" height="21.7502"/>
  <object id="312" x="378.697" y="28.0516" width="7.52109" height="12.8062"/>
  <object id="313" x="354.496" y="145.242" width="9.35839" height="101.071"/>
  <object id="314" x="360.859" y="140.001" width="11.9787" height="60.268"/>
  <object id="315" x="563.749" y="145.242" width="7.86105" height="95.4556"/>
  <object id="316" x="554.017" y="146.365" width="9.73272" height="54.2787"/>
  <object id="317" x="1351.73" y="514.337" width="45.2946" height="47.5406"/>
  <object id="318" x="455.829" y="6.37523" width="50.5464" height="25.5009"/>
  <object id="320" x="463.57" y="-1.82149" width="36.8852" height="16.6211"/>
  <object id="321" x="515.255" y="4.09836" width="50.7741" height="26.6393"/>
  <object id="322" x="520.492" y="-4.32605" width="40.3005" height="15.7104"/>
  <object id="323" x="471.311" y="27.5501" width="19.8087" height="15.0273"/>
  <object id="324" x="463.115" y="27.7778" width="34.6084" height="9.79053"/>
  <object id="326" x="645.44" y="-3.21361" width="49.1929" height="20.2704"/>
  <object id="327" x="641.485" y="6.18001" width="59.0809" height="35.1025"/>
  <object id="328" x="660.025" y="37.3273" width="20.5176" height="25.4616"/>
  <object id="329" x="700.072" y="-4.94401" width="51.9121" height="17.304"/>
  <object id="330" x="710.207" y="6.67441" width="37.3273" height="21.012"/>
  <object id="331" x="693.397" y="34.8553" width="56.3617" height="41.0353"/>
  <object id="332" x="707.982" y="69.9577" width="22.248" height="20.5176"/>
  <object id="333" x="705.263" y="24.4728" width="28.4281" height="16.068"/>
  <object id="334" x="38.7891" y="547.713" width="16.6239" height="29.1647"/>
  <object id="339" x="17.6422" y="154.628" width="17.9881" height="16.9503"/>
  <object id="340" x="-2.07555" y="125.917" width="54.6562" height="33.2088"/>
  <object id="341" x="12.1074" y="112.772" width="34.5925" height="22.1392"/>
  <object id="342" x="20.7555" y="106.545" width="17.2963" height="11.0696"/>
  <object id="343" x="56.9175" y="420.682" width="48.9998" height="35.1066"/>
  <object id="344" x="74.0973" y="452.95" width="17.4786" height="16.4329"/>
  <object id="383" x="20.2429" y="556.147" width="431.494" height="27.7008"/>
  <object id="384" x="518.858" y="557.213" width="250.373" height="25.57"/>
  <object id="386" x="746.857" y="-47.9437" width="21.3083" height="620.072"/>
  <object id="394" x="897.753" y="68.4346" width="529.017" height="102.202"/>
  <object id="397" x="857.683" y="27.4639" width="53.1268" height="562.784"/>
  <object id="398" x="901.355" y="116.609" width="208.455" height="81.9414"/>
  <object id="399" x="890.1" y="577.642" width="198.55" height="45.473"/>
  <object id="400" x="1183.65" y="577.642" width="252.578" height="46.8236"/>
  <object id="401" x="991.851" y="436.721" width="280.942" height="95.4482"/>
  <object id="402" x="992.301" y="251.227" width="279.591" height="98.5998"/>
  <object id="409" x="64.3825" y="406.555" width="36.9186" height="18.9095"/>
  <object id="410" x="67.9843" y="378.191" width="18.4593" height="32.4164"/>
  <object id="411" x="54.9277" y="364.234" width="40.0702" height="26.5634"/>
  <object id="412" x="62.1314" y="349.376" width="27.4639" height="19.3598"/>
  <object id="420" x="598.454" y="951.796" width="49.568" height="100.5"/>
  <object id="423" x="374.306" y="856.911" width="31.8126" height="49.4111"/>
  <object id="424" x="1033.57" y="852.173" width="37.9044" height="55.5029"/>
  <object id="425" x="812.238" y="946.934" width="48.0574" height="105.591"/>
 </objectgroup>
 <objectgroup id="6" name="Trigger">
  <object id="348" name="village-a" type="VillageArea" x="46.3644" y="41.841" width="701.12" height="511.139"/>
  <object id="353" name="village-b" type="VillageArea" x="906.932" y="167.364" width="515.662" height="409.363"/>
 </objectgroup>
 <objectgroup id="7" name="Spawn">
  <object id="379" name="lobby" type="SpawnPoint" x="767.1" y="718.091">
   <point/>
  </object>
 </objectgroup>
</map>
